blockchains/ethereum/assets/0x5555e6B8e710BBCd7804f5172395b87c09621f80/logo.svg

<svg fill="none" height="250" viewBox="0 0 250 250" width="250" xmlns="http://www.w3.org/2000/svg" xmlns:xlink="http://www.w3.org/1999/xlink"><clipPath id="a"><path d="m0 0h250v250h-250z"/></clipPath><g clip-path="url(#a)"><circle cx="125" cy="125" fill="#06c" r="125"/><g fill="#fff"><path d="m60.1655 154.789v57.243c8.9564-5.646 27.4533-17.523 29.7897-19.86 2.3365-2.336 2.9206-6.814 2.9206-8.761v-62.5c-7.204 3.894-22.6635 12.967-26.8692 18.107-4.2056 5.14-5.6464 12.656-5.8411 15.771z"/><path d="m186.915 117.991v72.43c-8.956-5.646-27.453-17.523-29.789-19.86-2.337-2.336-2.921-6.814-2.921-8.762v-77.6865c7.204 3.8941 22.664 12.9673 26.869 18.1075 4.206 5.14 5.647 12.656 5.841 15.771z"/><path d="m109.813 36.7989v144.2761c14.603-8.178 25.117-14.019 27.453-16.94 1.753-2.19 1.753-9.249 1.753-12.266v-135.514c-7.01 4.0888-20.444 11.5474-23.949 13.4346-3.505 1.8871-5.083 2.1824-5.257 7.0093z"/></g></g></svg>

<svg width="250" height="250" viewBox="0 0 250 250" fill="none" xmlns="http://www.w3.org/2000/svg">
<g clip-path="url(#clip0_26_400)">
<circle cx="125" cy="125" r="125" fill="#0066CC"/>
<path d="M60.1655 154.789V212.032C69.1219 206.386 87.6188 194.509 89.9552 192.172C92.2917 189.836 92.8758 185.358 92.8758 183.411V120.911C85.6718 124.805 70.2123 133.878 66.0066 139.018C61.801 144.158 60.3602 151.674 60.1655 154.789Z" fill="white"/>
<path d="M186.915 117.991V190.421C177.959 184.775 159.462 172.898 157.126 170.561C154.789 168.225 154.205 163.747 154.205 161.799V84.1125C161.409 88.0066 176.869 97.0798 181.074 102.22C185.28 107.36 186.721 114.876 186.915 117.991Z" fill="white"/>
<path d="M109.813 36.7989V181.075C124.416 172.897 134.93 167.056 137.266 164.135C139.019 161.945 139.019 154.886 139.019 151.869V16.355C132.009 20.4438 118.575 27.9024 115.07 29.7896C111.565 31.6767 109.987 31.972 109.813 36.7989Z" fill="white"/>
</g>
<defs>
<clipPath id="clip0_26_400">
<rect width="250" height="250" fill="white"/>
</clipPath>
</defs>
</svg>
